src/icons/outline/cash.svg

<svg width="24" height="24" viewBox="0 0 24 24" fill="none" xmlns="http://www.w3.org/2000/svg">
<path d="M17 9V7C17 5.89543 16.1046 5 15 5H5C3.89543 5 3 5.89543 3 7V13C3 14.1046 3.89543 15 5 15H7M9 19H19C20.1046 19 21 18.1046 21 17V11C21 9.89543 20.1046 9 19 9H9C7.89543 9 7 9.89543 7 11V17C7 18.1046 7.89543 19 9 19ZM16 14C16 15.1046 15.1046 16 14 16C12.8954 16 12 15.1046 12 14C12 12.8954 12.8954 12 14 12C15.1046 12 16 12.8954 16 14Z" stroke="#4A5568" stroke-width="2" stroke-linecap="round" stroke-linejoin="round"/>
</svg>

<svg xmlns="http://www.w3.org/2000/svg" fill="none" viewBox="0 0 24 24" stroke="currentColor">
  <path stroke-linecap="round" stroke-linejoin="round" stroke-width="2" d="M17 9V7a2 2 0 00-2-2H5a2 2 0 00-2 2v6a2 2 0 002 2h2m2 4h10a2 2 0 002-2v-6a2 2 0 00-2-2H9a2 2 0 00-2 2v6a2 2 0 002 2zm7-5a2 2 0 11-4 0 2 2 0 014 0z"/>
</svg>
